lib/components/NewIcon/assets/mail.svg

<svg width="24" height="24" viewBox="0 0 24 24" fill="none" xmlns="http://www.w3.org/2000/svg">
<path d="M12.0004 2C9.34927 2.00287 6.8075 3.05704 4.93284 4.93121C3.05818 6.80539 2.00374 9.3465 2.00087 11.997C1.89588 19.9721 11.2996 24.8506 17.7502 20.1753C17.8429 20.1137 17.9223 20.0341 17.9837 19.9413C18.0451 19.8484 18.0873 19.7442 18.1078 19.6348C18.1282 19.5254 18.1266 19.413 18.1028 19.3043C18.0791 19.1955 18.0339 19.0926 17.9697 19.0017C17.9056 18.9107 17.8238 18.8335 17.7294 18.7746C17.6349 18.7158 17.5295 18.6764 17.4196 18.659C17.3096 18.6415 17.1973 18.6462 17.0892 18.6728C16.9811 18.6995 16.8794 18.7475 16.7902 18.8141C11.4171 22.7071 3.58414 18.6433 3.66747 11.997C4.12495 0.945319 19.8776 0.947818 20.3334 11.997V13.6631C20.3334 14.105 20.1578 14.5288 19.8453 14.8413C19.5327 15.1538 19.1088 15.3293 18.6668 15.3293C18.2248 15.3293 17.8009 15.1538 17.4884 14.8413C17.1758 14.5288 17.0002 14.105 17.0002 13.6631V11.997C16.7902 5.39148 7.20981 5.39231 7.00065 11.997C7.01035 13.01 7.32685 13.9963 7.90843 14.8259C8.49002 15.6555 9.30939 16.2895 10.2586 16.6443C11.2077 16.999 12.2421 17.0579 13.2255 16.8132C14.2088 16.5685 15.0949 16.0317 15.7669 15.2735C16.1284 15.9113 16.6902 16.4122 17.3653 16.6985C18.0403 16.9848 18.791 17.0405 19.5009 16.8571C20.2109 16.6737 20.8406 16.2613 21.2924 15.6839C21.7441 15.1065 21.9929 14.3962 22 13.6631V11.997C21.9971 9.3465 20.9427 6.80539 19.068 4.93121C17.1934 3.05704 14.6516 2.00287 12.0004 2ZM12.0004 15.3293C11.1164 15.3293 10.2686 14.9782 9.64352 14.3533C9.01842 13.7284 8.66725 12.8808 8.66725 11.997C8.66725 11.1132 9.01842 10.2656 9.64352 9.64067C10.2686 9.01574 11.1164 8.66465 12.0004 8.66465C12.8845 8.66465 13.7323 9.01574 14.3574 9.64067C14.9824 10.2656 15.3336 11.1132 15.3336 11.997C15.3336 12.8808 14.9824 13.7284 14.3574 14.3533C13.7323 14.9782 12.8845 15.3293 12.0004 15.3293Z" fill="white"/>
</svg>

<svg xmlns="http://www.w3.org/2000/svg" width="24" height="24" fill="none" viewBox="0 0 24 24"><path fill="#fff" d="M12 2a10.01 10.01 0 0 0-10 9.997c-.104 7.975 9.3 12.854 15.75 8.178a.833.833 0 1 0-.96-1.36c-5.373 3.892-13.206-.172-13.123-6.818.458-11.052 16.21-11.05 16.666 0v1.666a1.666 1.666 0 0 1-3.333 0v-1.666c-.21-6.606-9.79-6.605-10 0a5.012 5.012 0 0 0 6.226 4.816 5 5 0 0 0 2.54-1.54A3.333 3.333 0 0 0 22 13.664v-1.666A10.007 10.007 0 0 0 12 2m0 13.33a3.334 3.334 0 0 1-2.356-5.69A3.334 3.334 0 1 1 12 15.33"/></svg>
